svgs/sharp-regular/bracket-curly-right.svg

<svg xmlns="http://www.w3.org/2000/svg" viewBox="0 0 256 512"><!--! Font Awesome Pro 6.6.0 by @fontawesome - https://fontawesome.com License - https://fontawesome.com/license (Commercial License) Copyright 2024 Fonticons, Inc. --><path d="M168 32l24 0 0 24 0 126.1 57 57 7 7 0 19.9-7 7-57 57L192 456l0 24-24 0L56 480l-24 0 0-48 24 0 88 0 0-112 0-9.9 7-7 47-47-47-47-7-7 0-9.9 0-112L56 80 32 80l0-48 24 0 112 0z"/></svg>

<svg xmlns="http://www.w3.org/2000/svg" viewBox="0 0 256 512"><!--! Font Awesome Pro 6.4.2 by @fontawesome - https://fontawesome.com License - https://fontawesome.com/license (Commercial License) Copyright 2023 Fonticons, Inc. --><path d="M168 32h24V56 182.1l57 57 7 7v19.9l-7 7-57 57V456v24H168 56 32V432H56h88V320v-9.9l7-7 47-47-47-47-7-7V192 80H56 32V32H56 168z"/></svg>
